X: 16026
T: Green Brechans O' Branton, The
R: jig
M: 6/8
K: Fmajor
g|:f2A AcA|B/c/dB G2g|f2A AcA|d3g3|
f2A AcA|B/c/dB G2g|faf gec|d3g3:|
|:f2g afd|e2f gec|f2g afd|f3a3|
f2g afd|e2f gec|faf gec|d3g2:|

